!!!OTL: Shan dui shan lai ya dui ya
!!!ARE: Asia, China,ÿSichuan, Huili
!! II, 253, 2)
!!!SCT: C1507
!!!YEM: Copyright 1995, estate of Helmut Schaffrath.
**kern
*ICvox
*Ivox
!! Mixed meters:  4/4; 2/4; 3/4
*M4/4
*k[f#c#g#d#]
*E:
{8ff#
8ee
[2cc#
8cc#]
16ff#
16cc#
=1
*M2/4
8ff#
16cc#
16cc#
8b
16cc#
16ee
=2
*M4/4
[2cc#
8cc#]
16b
16g#
16f#
16e
8r}
=3
{12cc#
12b
12cc#
[2g#
8g#]
16f#
16e
=4
*M3/4
8c#
16cc#
16g#
16g#
16g#
32g#
32b
16g#
4g#
=5
*M4/4
16f#
16e
[8c#
4c#]
2r}
=6
*M3/4
{8ff#
8ee
4.cc#
16b
16ee
=7
*M2/4
8b
16b
16cc#
16b
16cc#
8ee
=8
*M4/4
[2cc#
8cc#]
16b
16g#
16f#
16e
8r}
=9
{12cc#
12b
12cc#
[2g#
8g#]
16f#
16e
=10
8c#
16g#
16b
16b
16cc#
16g#
16g#
8b
16g#
16b
4g#
=11
16f#
16e
[8c#
2.c#]}
==
!!!AGN: Shange
!!!AMT: irregular
!!!AIN: vox
!!!EED: Helmut Schaffrath
!!!EEV: 1.0
*-
